packages/foundations/assets/icons/functional/images/security/fingerprint_16.svg

<svg width="16" height="16" viewBox="0 0 16 16" fill="none" xmlns="http://www.w3.org/2000/svg">
<g clip-path="url(#clip0_187_232)">
<path fill-rule="evenodd" clip-rule="evenodd" d="M9.6879 13.8953C7.96297 12.8817 6.83963 11.3974 6.44052 9.6036C6.34317 9.16645 6.60357 8.7288 7.02263 8.62713C7.44267 8.52598 7.86027 8.79742 7.95762 9.23508C8.33336 10.9247 9.52144 11.9312 10.452 12.4776C10.8268 12.6982 10.9597 13.1938 10.7489 13.5852C10.6058 13.8506 10.3416 14 10.0695 14C9.93953 14 9.8086 13.9665 9.6879 13.8953ZM4.95944 13.5344C4.69418 13.5344 4.43524 13.3926 4.28971 13.1374C3.69251 12.0908 3.50026 11.2017 3.49198 11.1641C3.35862 10.6538 3.28318 10.0616 3.28318 9.48974C3.28318 8.27742 3.79521 7.13473 4.68785 6.35498C5.39018 5.74144 6.28087 5.40342 7.1959 5.40342C8.90087 5.40342 10.398 6.54254 10.9217 8.23828C11.0536 8.66577 10.8288 9.12426 10.4194 9.26202C10.0091 9.39977 9.57108 9.16544 9.43918 8.73795C9.12379 7.71624 8.22239 7.03002 7.1959 7.03002C6.64591 7.03002 6.11004 7.23334 5.68708 7.60339C5.14926 8.07307 4.84068 8.76082 4.84068 9.49025C4.84068 9.92028 4.89714 10.3651 5.00373 10.7763C5.01346 10.8175 5.1658 11.4966 5.62721 12.3048C5.84721 12.6906 5.7265 13.1897 5.35708 13.4195C5.232 13.4973 5.09523 13.5344 4.95944 13.5344ZM13.0847 11.614C12.6661 11.5113 12.4062 11.0736 12.505 10.636C12.9674 8.58037 12.3064 6.4358 10.7801 5.03997C10.4564 4.74363 10.4243 4.22972 10.7076 3.8922C10.9913 3.55367 11.4829 3.52012 11.8066 3.81595C13.7676 5.60979 14.6164 8.36535 14.0216 11.0081C13.9374 11.3827 13.6172 11.6354 13.2643 11.6354C13.2049 11.6358 13.1451 11.6287 13.0847 11.614ZM2.04497 5.53812C1.72763 5.23466 1.70524 4.72075 1.99533 4.38882C3.16832 3.04789 4.76621 2.21223 6.49503 2.03483C7.31466 1.95248 8.13283 2.01602 8.92667 2.22697C9.3433 2.33829 9.59493 2.78103 9.48883 3.21615C9.38272 3.65126 8.95977 3.91253 8.54168 3.80325C7.92355 3.63855 7.28595 3.58671 6.64689 3.6538C5.3016 3.79156 4.05804 4.44169 3.14495 5.48576C2.99164 5.66164 2.78089 5.75059 2.56965 5.75059C2.38275 5.75059 2.19439 5.68045 2.04497 5.53812Z" fill="#1A1C1F"/>
</g>
<defs>
<clipPath id="clip0_187_232">
<rect width="16" height="16" fill="white"/>
</clipPath>
</defs>
</svg>

<svg xmlns="http://www.w3.org/2000/svg" width="16" height="16" fill="none"><g clip-path="url(#a)"><path fill="#1A1C1F" fill-rule="evenodd" d="M9.688 13.895C7.963 12.882 6.84 11.397 6.44 9.604c-.098-.438.163-.875.582-.977.42-.101.837.17.935.608.375 1.69 1.563 2.696 2.494 3.243.375.22.508.716.297 1.107a.77.77 0 0 1-.68.415.75.75 0 0 1-.381-.105m-4.729-.36a.77.77 0 0 1-.67-.398c-.596-1.046-.789-1.935-.797-1.973a6.8 6.8 0 0 1-.209-1.674c0-1.213.512-2.355 1.405-3.135a3.82 3.82 0 0 1 2.508-.952c1.705 0 3.202 1.14 3.726 2.835.132.428-.093.886-.503 1.024a.77.77 0 0 1-.98-.524C9.124 7.716 8.222 7.03 7.196 7.03c-.55 0-1.086.203-1.509.573a2.5 2.5 0 0 0-.846 1.887c0 .43.056.875.163 1.286.01.042.162.72.623 1.529.22.386.1.885-.27 1.114a.75.75 0 0 1-.398.115m8.126-1.921c-.419-.103-.679-.54-.58-.978.462-2.056-.199-4.2-1.725-5.596a.84.84 0 0 1-.072-1.148.756.756 0 0 1 1.099-.076c1.96 1.794 2.81 4.55 2.215 7.192a.79.79 0 0 1-.758.627.7.7 0 0 1-.18-.021M2.045 5.538a.84.84 0 0 1-.05-1.15c1.173-1.34 2.771-2.176 4.5-2.353a6.8 6.8 0 0 1 2.432.192c.416.111.668.554.562.99a.78.78 0 0 1-.947.586 5.2 5.2 0 0 0-1.895-.15 5.38 5.38 0 0 0-3.502 1.833.759.759 0 0 1-1.1.052" clip-rule="evenodd"/></g><defs><clipPath id="a"><path fill="#fff" d="M0 0h16v16H0z"/></clipPath></defs></svg>
